assets/flash_off.svg

<svg width="56" height="56" viewBox="0 0 56 56" fill="none" xmlns="http://www.w3.org/2000/svg">
<path d="M28 56C43.464 56 56 43.464 56 28C56 12.536 43.464 0 28 0C12.536 0 0 12.536 0 28C0 43.464 12.536 56 28 56Z" fill="#E2E5EE"/>
<path d="M37.1422 24.0597C36.9505 23.7406 36.6055 23.5454 36.2333 23.5453H28.809V15.0604C28.8089 14.574 28.4779 14.1499 28.0059 14.0318C27.534 13.9137 27.0422 14.1318 26.813 14.5609L18.3281 30.47C18.1526 30.7987 18.1625 31.1954 18.3541 31.5149C18.5457 31.8345 18.891 32.0301 19.2636 32.0301H26.6878V40.515C26.6878 41.0015 27.0188 41.4256 27.4907 41.5438C27.575 41.565 27.6615 41.5756 27.7484 41.5756C28.1399 41.5756 28.4995 41.3599 28.6839 41.0145L37.1687 25.1054C37.3444 24.7764 37.3343 24.3794 37.1422 24.0597ZM28.809 36.2726V30.9695C28.809 30.3838 28.3342 29.9089 27.7484 29.9089H21.0316L26.6878 19.3029V24.6059C26.6878 25.1917 27.1627 25.6665 27.7484 25.6665H34.4653L28.809 36.2726Z" fill="#081132"/>
</svg>

<svg xmlns="http://www.w3.org/2000/svg" width="56" height="56" fill="none" viewBox="0 0 56 56">
    <path fill="#F6E9D3" d="M28 56c15.464 0 28-12.536 28-28S43.464 0 28 0 0 12.536 0 28s12.536 28 28 28z"/>
    <path fill="#2B2B2B" d="M37.142 24.06c-.192-.32-.537-.515-.909-.515H28.81V15.06c0-.486-.331-.91-.803-1.028-.472-.118-.964.1-1.193.529L18.328 30.47c-.175.329-.165.725.026 1.045.192.32.537.515.91.515h7.424v8.485c0 .486.33.91.803 1.029.084.021.17.032.257.032.392 0 .752-.216.936-.562l8.485-15.909c.175-.329.165-.726-.027-1.045zM28.81 36.273v-5.304c0-.585-.475-1.06-1.06-1.06h-6.717l5.656-10.606v5.303c0 .586.475 1.06 1.06 1.06h6.717L28.81 36.273z"/>
</svg>
